X: 02
T: GODDESSES
B: "FIFTY OLD ENGLISH FOLK DANCE AIRS", Edgar H. Hunt ed., Schott & Co. Ltd. pub., London 1939
Z: 2004-2014 John Chambers <jc:trillian.mit.edu>
M: 2/2
L: 1/8
K: Am
|: A2A2 c2(BA) | B2B2 d2(cB) |  A2A2  c2(BA) | e2e2 e4 :|\
|: .g2.e2 Mc3e | .d2.B2 MG3B | .c2.A2 G3B    | A2A2 A4 :|

%%sep 1 1 500
%%sep 1 1 500
